carriers/inPost.svg

<svg width="128" height="64" viewBox="0 0 128 64" fill="none" xmlns="http://www.w3.org/2000/svg">
<rect width="128" height="64" rx="6" fill="white"/>
<path fill-rule="evenodd" clip-rule="evenodd" d="M67.2929 40.2936H64.521V32.382C64.521 30.716 63.7814 29.8192 62.4383 29.7159C61.6011 29.6511 60.2743 29.8473 59.3114 30.0618V40.2936H56.5383V28.1024C56.5383 28.1024 59.9101 27.356 62.9555 27.3583C64.2726 27.3597 65.3254 27.8247 66.1116 28.608C66.8987 29.3912 67.2929 30.4824 67.2929 31.8813V40.2936Z" fill="#424143"/>
<path fill-rule="evenodd" clip-rule="evenodd" d="M114.053 40.3773C113.597 40.4926 113.124 40.5501 112.634 40.5501C111.072 40.5501 110.04 40.2048 109.537 39.5146C109.136 38.972 108.936 37.9435 108.936 36.4298V23.7421H111.672V27.3298H114.101V29.5498H111.672V36.257C111.672 36.9813 111.765 37.4589 111.951 37.6893C112.17 37.9846 112.634 38.1325 113.344 38.1325C113.547 38.1325 113.783 38.1165 114.053 38.0834V40.3773Z" fill="#424143"/>
<path fill-rule="evenodd" clip-rule="evenodd" d="M28.3888 32.0354C28.3888 32.0354 25.1429 33.2818 21.1379 33.2818C17.1333 33.2818 13.887 32.0354 13.887 32.0354C13.887 32.0354 17.1333 30.7893 21.1379 30.7893C25.1429 30.7893 28.3888 32.0354 28.3888 32.0354Z" fill="#FFCB04"/>
<path fill-rule="evenodd" clip-rule="evenodd" d="M38.4152 13.7058C38.4152 13.7058 35.5389 11.782 33.2993 8.54954C31.0604 5.31709 30.3059 1.99976 30.3059 1.99976C30.3059 1.99976 33.1819 3.92357 35.4218 7.1558C37.6609 10.3887 38.4152 13.7058 38.4152 13.7058Z" fill="#FFCB04"/>
<path fill-rule="evenodd" clip-rule="evenodd" d="M31.0716 21.6152C31.0716 21.6152 27.6046 21.2316 24.0688 19.4006C20.5329 17.5704 18.2676 14.9862 18.2676 14.9862C18.2676 14.9862 21.7345 15.3698 25.2704 17.2005C28.8062 19.031 31.0716 21.6152 31.0716 21.6152Z" fill="#FFCB04"/>
<path fill-rule="evenodd" clip-rule="evenodd" d="M38.0678 38.0362C40.1259 38.0168 42.6082 36.4072 42.6082 36.4072C42.6082 36.4072 36.8525 34.6771 37.2148 29.5498C38.3497 21.1351 45.2094 14.5287 53.7968 13.4656C52.886 13.3408 51.956 13.2755 51.009 13.2795C40.3876 13.3262 31.8156 21.7489 31.8632 32.0913C31.911 42.4333 40.5606 50.7796 51.1822 50.7332C52.0681 50.7294 52.9382 50.6621 53.7917 50.5452C46.255 49.6099 40.1207 44.4356 37.9201 37.5974" fill="#FFCB04"/>
<path fill-rule="evenodd" clip-rule="evenodd" d="M38.4152 50.2933C38.4152 50.2933 35.5389 52.2174 33.2993 55.4503C31.0604 58.6823 30.3059 62.0001 30.3059 62.0001C30.3059 62.0001 33.1819 60.076 35.4218 56.8436C37.6609 53.6111 38.4152 50.2933 38.4152 50.2933Z" fill="#FFCB04"/>
<path fill-rule="evenodd" clip-rule="evenodd" d="M31.0716 42.3848C31.0716 42.3848 27.6046 42.7683 24.0688 44.5993C20.5329 46.4293 18.2676 49.0135 18.2676 49.0135C18.2676 49.0135 21.7345 48.6299 25.2704 46.7994C28.8062 44.9687 31.0716 42.3848 31.0716 42.3848Z" fill="#FFCB04"/>
<path fill-rule="evenodd" clip-rule="evenodd" d="M50.97 40.2798H53.7968V23.7285H50.97V40.2798Z" fill="#424143"/>
<path fill-rule="evenodd" clip-rule="evenodd" d="M79.3116 29.3848C79.3116 27.3781 78.3229 26.3753 76.3478 26.3753H72.862V32.3457H76.2959C77.2422 32.3457 77.9815 32.0869 78.5134 31.5685C79.045 31.0505 79.3116 30.3226 79.3116 29.3848ZM82.168 29.3848C82.168 31.0788 81.6391 32.4402 80.5855 33.4684C79.5289 34.4961 78.0969 35.0097 76.2894 35.0097H72.862V40.2399H70.0352V23.6857H76.0868C78.0459 23.6857 79.5498 24.1922 80.5972 25.2038C81.644 26.2151 82.168 27.6088 82.168 29.3848Z" fill="#424143"/>
<path fill-rule="evenodd" clip-rule="evenodd" d="M92.391 33.7335C92.391 32.487 92.099 31.4994 91.5177 30.7697C90.9334 30.0404 90.1612 29.6748 89.1977 29.6748C88.2359 29.6748 87.4624 30.0445 86.8793 30.7818C86.298 31.5202 86.0067 32.5032 86.0067 33.7335C86.0067 34.9792 86.298 35.967 86.8793 36.6967C87.4624 37.4269 88.2359 37.7916 89.1977 37.7916C90.1612 37.7916 90.9334 37.4269 91.5177 36.6967C92.099 35.967 92.391 34.9792 92.391 33.7335ZM95.2534 33.7208C95.2534 35.711 94.6922 37.3149 93.5684 38.5318C92.444 39.7492 90.989 40.357 89.1977 40.357C87.4088 40.357 85.9506 39.7492 84.8281 38.5318C83.7039 37.3149 83.1431 35.711 83.1431 33.7208C83.1431 31.7317 83.7039 30.1314 84.8281 28.9223C85.9506 27.7141 87.4088 27.1094 89.1977 27.1094C91.0054 27.1094 92.4666 27.7141 93.5815 28.9223C94.6958 30.1314 95.2534 31.7317 95.2534 33.7208Z" fill="#424143"/>
<path fill-rule="evenodd" clip-rule="evenodd" d="M107.295 36.015C107.295 37.2655 106.805 38.293 105.824 39.0994C104.846 39.9058 103.553 40.3072 101.95 40.3072C99.4485 40.3072 97.5151 39.5674 96.1465 38.087L98.2492 36.3359C99.2968 37.3568 100.522 37.8656 101.923 37.8656C102.701 37.8656 103.317 37.7134 103.774 37.4093C104.23 37.1049 104.458 36.7233 104.458 36.2622C104.458 35.7362 104.195 35.3739 103.672 35.1767C103.368 35.0617 102.557 34.9056 101.24 34.7076C99.6518 34.478 98.5203 34.1323 97.8434 33.6716C97.0499 33.113 96.6542 32.2737 96.6542 31.1561C96.6542 30.0207 97.1349 29.0712 98.0975 28.3054C99.0599 27.5412 100.344 27.1583 101.95 27.1583C103.89 27.1583 105.546 27.7922 106.915 29.0584L105.268 30.7853C104.271 29.9146 103.139 29.4776 101.872 29.4776C100.251 29.4776 99.4409 29.9308 99.4409 30.835C99.4409 31.3608 99.8117 31.7231 100.556 31.9207C101.602 32.0841 102.641 32.2573 103.672 32.4378C106.087 32.8823 107.295 34.0746 107.295 36.015Z" fill="#424143"/>
</svg>

<svg xmlns="http://www.w3.org/2000/svg" width="128" height="64" fill="none"><rect width="128" height="64" fill="#fff" rx="6"/><path fill="#424143" fill-rule="evenodd" d="M67.293 40.294H64.52v-7.912c0-1.666-.74-2.563-2.083-2.666-.837-.065-2.164.131-3.127.346v10.232h-2.773V28.102s3.372-.746 6.418-.744c1.317.002 2.37.467 3.156 1.25.787.783 1.18 1.874 1.18 3.273v8.413ZM114.053 40.377a5.767 5.767 0 0 1-1.419.173c-1.562 0-2.594-.345-3.097-1.035-.401-.543-.601-1.572-.601-3.085V23.742h2.736v3.588h2.429v2.22h-2.429v6.707c0 .724.093 1.202.279 1.432.219.296.683.444 1.393.444.203 0 .439-.017.709-.05v2.294Z" clip-rule="evenodd"/><path fill="#FFCB04" fill-rule="evenodd" d="M28.389 32.035s-3.246 1.247-7.251 1.247c-4.005 0-7.251-1.247-7.251-1.247s3.246-1.246 7.25-1.246c4.006 0 7.252 1.246 7.252 1.246ZM38.415 13.706S35.54 11.782 33.3 8.55C31.06 5.317 30.306 2 30.306 2s2.876 1.924 5.116 5.156c2.239 3.233 2.993 6.55 2.993 6.55ZM31.072 21.615s-3.467-.383-7.003-2.214c-3.536-1.83-5.801-4.415-5.801-4.415s3.466.384 7.002 2.215c3.536 1.83 5.802 4.414 5.802 4.414ZM38.068 38.036c2.058-.02 4.54-1.629 4.54-1.629s-5.755-1.73-5.393-6.857c1.135-8.415 7.994-15.021 16.582-16.084-.911-.125-1.841-.19-2.788-.186-10.621.046-19.193 8.469-19.146 18.811.048 10.342 8.698 18.689 19.32 18.642a19.837 19.837 0 0 0 2.609-.188c-7.537-.935-13.671-6.11-15.872-12.948M38.415 50.293S35.54 52.217 33.3 55.45C31.06 58.682 30.306 62 30.306 62s2.876-1.924 5.116-5.156c2.239-3.233 2.993-6.55 2.993-6.55ZM31.072 42.385s-3.467.383-7.003 2.214c-3.536 1.83-5.801 4.415-5.801 4.415s3.466-.384 7.002-2.215c3.536-1.83 5.802-4.414 5.802-4.414Z" clip-rule="evenodd"/><path fill="#424143" fill-rule="evenodd" d="M50.97 40.28h2.827V23.728H50.97V40.28ZM79.312 29.385c0-2.007-.99-3.01-2.964-3.01h-3.486v5.97h3.434c.946 0 1.685-.258 2.217-.776s.799-1.246.799-2.184Zm2.856 0c0 1.694-.529 3.055-1.583 4.083-1.056 1.028-2.488 1.542-4.296 1.542h-3.427v5.23h-2.827V23.686h6.052c1.959 0 3.463.506 4.51 1.518 1.047 1.011 1.571 2.405 1.571 4.18ZM92.391 33.733c0-1.246-.292-2.234-.873-2.963-.585-.73-1.357-1.095-2.32-1.095-.962 0-1.736.37-2.319 1.107-.581.738-.872 1.721-.872 2.951 0 1.246.291 2.234.872 2.964.583.73 1.357 1.095 2.319 1.095.963 0 1.735-.365 2.32-1.095.581-.73.873-1.718.873-2.964Zm2.862-.012c0 1.99-.56 3.594-1.685 4.81-1.124 1.218-2.579 1.826-4.37 1.826-1.79 0-3.247-.608-4.37-1.825-1.124-1.217-1.685-2.821-1.685-4.811 0-1.99.56-3.59 1.685-4.799 1.123-1.208 2.58-1.813 4.37-1.813 1.807 0 3.269.605 4.384 1.813 1.114 1.21 1.671 2.81 1.671 4.799ZM107.295 36.015c0 1.25-.49 2.278-1.471 3.084-.978.807-2.271 1.208-3.874 1.208-2.502 0-4.435-.74-5.803-2.22l2.102-1.751c1.048 1.02 2.273 1.53 3.674 1.53.778 0 1.394-.153 1.851-.457.456-.304.684-.686.684-1.147 0-.526-.263-.888-.786-1.085-.304-.115-1.115-.271-2.432-.47-1.588-.229-2.72-.575-3.397-1.035-.793-.559-1.189-1.398-1.189-2.516 0-1.135.48-2.085 1.444-2.85.962-.765 2.246-1.148 3.852-1.148 1.94 0 3.596.634 4.965 1.9l-1.647 1.727c-.997-.87-2.129-1.307-3.396-1.307-1.621 0-2.431.453-2.431 1.357 0 .526.37.888 1.115 1.086 1.046.163 2.085.336 3.116.517 2.415.444 3.623 1.637 3.623 3.577Z" clip-rule="evenodd"/></svg>
